X: 30371
T: Old Pigeon On The Gate, The
R: reel
M: 4/4
K: Gmajor
|:G2 BG dGBG|FDAF dFAF|G2 BG dGBG|1 cBAG FADF:|2 cBAG FA D2||
|:B/c/dgd BGGB|ABcd eged|B/c/dgd BG GB|1 cBAG FAD2:|2 cBAG FADF||

